!!!OTL: Musterung (248a), S. 529
!!!id: T0436
**kern
*clefG2
*k[f#]
*D:
{8a
=1
8b
8a
8f#
8e
=2
8d
4d}
8r
=3
{4a
8g
8e
=4
4d}
4r
=5
{8g
8g
8g
8a
=6
8a
8e
8e
8e}
=7
{8g
8g
8g
8f#
=8
8b
8a
8f#
8f#}
=9
{4a
8g
8e
=10
4d}
8r
==
*-
!!!minrhy: 8
!!!meters: 2/4 ]  ZZ[5
!!!cut: Musterung (248a), S. 529
!!!reg: Luxemburg
!!!trd: Singendes Volk, Esch-Alzette, 1937 posth.
!!!rhy1: X  XXXX  XX_0
!!!rhy2: X_XX  X_0_
!!!key: T0436  08  D 2/4 ]  ZZ[5
!!!mod: SECHSTONSKALA DUR ?]  AMBITUS[6
!!!kad: 11231
!!!akz: 61_51_45_46_51_
!!!fot: 'a__b__c__d__b__
!!!for: 'a__b__aw_aw_bv_
!!!fok: '\__\__\__^d_\__
!! PHRAS[VORWIEGEND VOLLTAKTIG]
!!!fkt: Berufslied
!!!bem: StraPen, fff Witry, 10.1.1933
!! THILL; Mathias
!! PR[56] 2K[0] 2G[5] 3K[3] 3G[3] 4A[3] 4Ü[0] 5A[0] 6K[0] 6G[5]
!! 7K[0] 7G[0] 8A[0] MEHR[0] SI[18] ABS[39] SR[5] SP[13]
!! ST[12] 2k[3] 2g[18] 3k[0] 3g[0] 4d[5] 4ü[0] 5d[0] 6k[0] 6g[0]
!! 7k[0] 7g[0] 8d[0] mehr[0] si[26] dm[-8] sr[21] sp[5]
!! 1F[17] 2F[48] 3F[22] 4F[0] LF[0] 2P[0] 3P[0] 4P[0] TRI[0] DF[4] AB[46]
!! TF[0] U3K[0] U3[0] U4[0] U4Ü[0] U5[13] U6K[0] U6[0] U7K[0] U7[0]
!! N1[25] N2K[0] N2[20] N3K[0] N3[35] N4[5] N4Ü[0] N5[3] N6K[0] N6[0]
!!!n7k: 0] N7[0] O1[0] O2K[0] O2[0] O3K[0] O3[0] HÖ[0
